Pods/ProtonCore-UIFoundations/libraries/UIFoundations/Sources/Assets.xcassets/Images/IconSet/ic-cog-wheel.imageset/ic-cog-wheel.svg

<svg width="24" height="24" viewBox="0 0 24 24" fill="none" xmlns="http://www.w3.org/2000/svg">
<path fill-rule="evenodd" clip-rule="evenodd" d="M1.91861 14.0652L3.59535 14.5969C3.89164 14.6909 4.12328 14.9202 4.24307 15.207C4.36368 15.4957 4.36245 15.8238 4.21805 16.1014L3.40359 17.6673C3.28282 17.8995 3.32649 18.1832 3.51149 18.3683L5.62881 20.487C5.814 20.6724 6.09801 20.7161 6.33037 20.5951L7.8949 19.7802C8.17225 19.6358 8.50009 19.6346 8.78859 19.7552C9.07482 19.8749 9.30355 20.1062 9.39722 20.402L9.92907 22.0812C10.0081 22.3305 10.2395 22.5 10.5011 22.5H13.4858C13.7473 22.5 13.9788 22.3305 14.0578 22.0812L14.5896 20.402C14.6833 20.1062 14.912 19.8749 15.1982 19.7552C15.4867 19.6346 15.8146 19.6358 16.0919 19.7802L17.6565 20.5951C17.8888 20.7161 18.1728 20.6724 18.358 20.487L20.4753 18.3683C20.6603 18.1832 20.704 17.8995 20.5832 17.6673L19.7672 16.0983C19.6238 15.8226 19.6225 15.4969 19.7424 15.2102C19.8623 14.9235 20.0949 14.6949 20.3917 14.6029L22.0777 14.0803C22.3288 14.0024 22.5 13.7701 22.5 13.5072V10.5199C22.5 10.2584 22.3306 10.0271 22.0814 9.94801L20.4046 9.41623C20.1084 9.32226 19.8767 9.093 19.7569 8.80619C19.6363 8.51744 19.6376 8.18941 19.7819 7.91179L20.5964 6.34587C20.7172 6.11368 20.6735 5.83001 20.4885 5.64489L18.3712 3.52613C18.186 3.34082 17.902 3.29708 17.6696 3.4181L16.1044 4.23332C15.8275 4.37753 15.5002 4.37877 15.2122 4.25831C14.926 4.13859 14.6974 3.90707 14.6042 3.61116L14.0714 1.91973C13.9927 1.66991 13.761 1.5 13.4991 1.5H10.5142C10.2527 1.5 10.0212 1.66946 9.94224 1.91883L9.41039 3.59805C9.31671 3.89381 9.08799 4.12512 8.80176 4.24481C8.51325 4.36545 8.18541 4.36421 7.90806 4.21976L6.34388 3.4051C6.11218 3.28443 5.82902 3.32754 5.64374 3.51171L3.51273 5.62995C3.32659 5.81498 3.2823 6.09951 3.40341 6.33235L4.21805 7.89862C4.36245 8.17624 4.36368 8.50426 4.24307 8.79301C4.12328 9.07983 3.89164 9.30909 3.59535 9.40305L1.91861 9.93484C1.66935 10.0139 1.5 10.2453 1.5 10.5068V13.4932C1.5 13.7547 1.66935 13.9861 1.91861 14.0652ZM21 11.1787L19.9512 10.846C19.1915 10.6051 18.6443 10.0344 18.3728 9.3843C18.0986 8.72785 18.0811 7.93112 18.4512 7.21964L18.9614 6.23875L17.7769 5.05348L16.7972 5.5637C16.0862 5.93405 15.2895 5.91659 14.6334 5.64213C13.9832 5.37018 13.413 4.8221 13.1735 4.06184L12.839 3H11.1732L10.8404 4.05096C10.5999 4.81011 10.0299 5.35709 9.38045 5.62869C8.72389 5.90324 7.92676 5.92074 7.21517 5.55014L6.23456 5.03941L5.03952 6.22728L5.54881 7.20647C5.91886 7.91794 5.90138 8.71467 5.62719 9.37113C5.35566 10.0212 4.80847 10.5919 4.04882 10.8329L3 11.1655V12.8345L4.04882 13.1671C4.80847 13.4081 5.35566 13.9788 5.62719 14.6289C5.90138 15.2853 5.91886 16.0821 5.54881 16.7935L5.03863 17.7744L6.2231 18.9597L7.20201 18.4499C7.91359 18.0793 8.71072 18.0968 9.36728 18.3713C10.0168 18.6429 10.5868 19.1899 10.8272 19.949L11.1601 21H12.8268L13.1596 19.949C13.4001 19.1899 13.9701 18.6429 14.6195 18.3713C15.2761 18.0968 16.0732 18.0793 16.7848 18.4499L17.7637 18.9597L18.9482 17.7744L18.4364 16.7904C18.0674 16.081 18.0847 15.2863 18.3585 14.6315C18.6315 13.9787 19.1833 13.4071 19.9476 13.1701L21 12.8439V11.1787Z" fill="#0C0C14"/>
<path fill-rule="evenodd" clip-rule="evenodd" d="M12 9C10.3431 9 9 10.3431 9 12C9 13.6569 10.3431 15 12 15C13.6569 15 15 13.6569 15 12C15 10.3431 13.6569 9 12 9ZM7.5 12C7.5 9.51472 9.51472 7.5 12 7.5C14.4853 7.5 16.5 9.51472 16.5 12C16.5 14.4853 14.4853 16.5 12 16.5C9.51472 16.5 7.5 14.4853 7.5 12Z" fill="#0C0C14"/>
</svg>

<svg xmlns="http://www.w3.org/2000/svg" width="24" height="24" viewBox="0 0 24 24">
  <g class="ic-cog-wheel">
    <g class="Icon">
      <path fill-rule="evenodd" d="m1.919 14.065 1.676.532c.297.094.528.323.648.61.12.289.12.617-.025.894l-.814 1.566a.6.6 0 0 0 .107.701l2.118 2.119a.6.6 0 0 0 .701.108l1.565-.815c.277-.144.605-.146.894-.025.286.12.515.351.608.647l.532 1.68a.6.6 0 0 0 .572.418h2.985a.6.6 0 0 0 .572-.419l.532-1.679c.093-.296.322-.527.608-.647.289-.12.617-.12.894.025l1.565.815a.6.6 0 0 0 .701-.108l2.117-2.119a.6.6 0 0 0 .108-.7l-.816-1.57a1.048 1.048 0 0 1-.025-.888 1.05 1.05 0 0 1 .65-.607l1.686-.523a.6.6 0 0 0 .422-.573V10.52a.6.6 0 0 0-.419-.572l-1.676-.532a1.059 1.059 0 0 1-.648-.61c-.12-.289-.12-.617.025-.894l.814-1.566a.6.6 0 0 0-.108-.701l-2.117-2.119a.6.6 0 0 0-.701-.108l-1.566.815a1.052 1.052 0 0 1-.892.025 1.055 1.055 0 0 1-.608-.647l-.533-1.691a.6.6 0 0 0-.572-.42h-2.985a.6.6 0 0 0-.572.419l-.532 1.68a1.057 1.057 0 0 1-.608.646c-.289.12-.617.12-.894-.025l-1.564-.815a.6.6 0 0 0-.7.107L3.513 5.63a.6.6 0 0 0-.11.702L4.218 7.9c.144.277.146.605.025.894-.12.287-.351.516-.648.61l-1.676.532a.6.6 0 0 0-.419.572v2.986a.6.6 0 0 0 .419.572ZM21 11.18l-1.049-.333a2.558 2.558 0 0 1-1.578-1.462 2.555 2.555 0 0 1 .078-2.164l.51-.981-1.184-1.186-.98.51a2.551 2.551 0 0 1-2.164.08 2.554 2.554 0 0 1-1.46-1.581L12.84 3h-1.666l-.333 1.051c-.24.76-.81 1.306-1.46 1.578a2.554 2.554 0 0 1-2.165-.079l-.98-.51L5.04 6.226l.509.98c.37.71.352 1.508.078 2.164a2.558 2.558 0 0 1-1.578 1.462L3 11.165v1.67l1.049.332c.76.241 1.307.812 1.578 1.462a2.555 2.555 0 0 1-.078 2.165l-.51.98 1.184 1.186.979-.51a2.554 2.554 0 0 1 2.165-.079c.65.272 1.22.819 1.46 1.578L11.16 21h1.667l.333-1.051c.24-.76.81-1.306 1.46-1.578a2.554 2.554 0 0 1 2.165.079l.979.51 1.184-1.186-.512-.984a2.548 2.548 0 0 1-.078-2.158 2.55 2.55 0 0 1 1.59-1.462L21 12.844v-1.665Z"/>
      <path fill-rule="evenodd" d="M12 9a3 3 0 1 0 0 6 3 3 0 0 0 0-6Zm-4.5 3a4.5 4.5 0 1 1 9 0 4.5 4.5 0 0 1-9 0Z"/>
    </g>
  </g>
</svg>
